!!!COM: Hugo Wolf
!!!CNT: Deutscher
!!!TXO: Deutsche 
!!!OTL: Das verlassene Ma2gdelein
!!!ONM: No. 7
!!!ODT: 1888/
!!!LYR: Moericke
!!!ENC: Brian Bice
!!!YOR: 65 Songs for voice and piano, International Music Company, 1960
!!NB: Vocal melody and text only encoded.
**kern	**silbe
*clefG2	*
*k[]	*
*M2/4	*
=5	=5
{4ee	{Fru2h,
8ee	wann
8ee	die
=6	=6
8.a	Ha2h-
16a	-ne
4a	kra2hn,
=7	=7
8.dd	eh
16cc	die
8b	Stern-
8a	-lein
=8	=8
8g#	schwin-
8a	|
4b}	-den,}
=9	=9
{4cc	{muss
8cc	ich
8cc	am
=10	=10
8.f	Her-
16f	-de
4f	stehn,
=11	=11
4b	muss
8a	Feu-
8a	-er
=12	=12
4e	zu2n-
4e}	-den.}
=15	=15
{4e	{Scho2n
8e	ist
8f#	der
=16	=16
8.g#	Flam-
16a	-men
4g#	Schein,
=17	=17
8r	.
8a	es
12a	sprin-
12b	-gen
12cc#	die
=18	=18
16.cc#	Fun-
32dd	|
8cc#}	-ken;}
4r	.
=19	=19
{4ccn	{ich
8ccn	schau-
8ccn	-e
=20	=20
8.b	so
16c	dar-
4b	-ein,
=21	=21
8r	.
8cc	in
8ee-	Leid
8cc	ver-
=22	=22
8.b	-sun-
16g	|
4g}	-ken.}
=27	=27
{8dd	{Plo2tz-
8dd	-lich,
8r	.
8ff	da
=28	=28
8.ff	kommt
16a	es
4a	mir,
=29	=29
8ff	treu-
4ff	-lo-
8dd	-ser
=30	=30
8.cc#	Kna-
16a	|
4a}	-be,}
=31	=31
{8ccn	{dass
4ccn	ich
8ccn	die
=32	=32
8.b	Nacht
16g	von
8g	dir
8b	ge-
=33	=33
4.ee	-tra2u-
8cc	-met
=34	=34
8.b	ha-
16g	|
4g}	-be.}
=38	=38
{4ee	{Tra2-
8ee	-ne
8ee	auf
=39	=39
8.ee	Tra2-
16a	-ne
4a	dann
=40	=40
8.dd	stu2r-
16cc	|
8b	-set
8a	her-
=41	=41
8g#	-nie-
8a	|
8b}	-der;}
8r	.
=42	=42
{4cc	{so
8cc	kommt
8cc	der
=43	=43
8.cc	Tag
16f	her-
4f	-an
=45	=45
4b	o
8a	ging
8a	er
=46	=46
8f	wie-
8e}	-der!}
4r	.
*-	*-
